assets/images/icons/ico-shop-4.svg

<svg width="36" height="32" viewBox="0 0 36 32" fill="none" xmlns="http://www.w3.org/2000/svg">
<path d="M33.2713 14.3675L30.9315 12.8636L29.281 12.3059L28.2712 11.4111L27.0889 10.8711L26.4239 11.8807H24.1333H23.1974L20.1925 12.2243L15.7837 13.4312L14.4783 14.3675L14.2812 16.7809L20.3643 18.8498L29.6996 17.6922L33.2713 15.7957V14.3675Z" fill="white"/>
<path d="M15.6318 1.08004C15.9251 1.03448 16.3343 1.05926 16.4654 1.37977C16.6301 1.83215 16.4814 2.3165 16.3687 2.76329C16.0762 3.66087 15.6294 4.4993 15.1458 5.30736C13.8934 7.34788 12.3348 9.18299 10.6699 10.8966C9.05223 12.5255 7.30983 14.0497 5.36202 15.2742C4.86328 15.5795 4.35175 15.8657 3.82024 16.1086C3.21599 16.3548 2.57738 16.6353 1.90919 16.5322C1.56151 16.4459 1.45521 16.0431 1.47999 15.7282C1.52395 15.2374 1.69019 14.7683 1.85724 14.3087C2.72205 12.2777 4.04883 10.485 5.45953 8.80254C6.99172 7.00819 8.67577 5.33853 10.5229 3.86788C11.8097 2.8688 13.1621 1.91367 14.6878 1.31662C14.9892 1.19194 15.3097 1.1216 15.6318 1.08004Z" fill="white"/>
<path d="M16.3429 3.54102C16.6229 3.89258 17.1197 4.14987 17.1089 4.6615C17.1097 5.01965 17.0278 5.37414 16.9208 5.71402C16.4032 7.17073 15.5561 8.47613 14.6573 9.71503C13.4247 11.3852 12.0155 12.9142 10.5108 14.3315C9.22364 15.509 7.85821 16.617 6.33772 17.4678C5.61266 17.8406 4.84236 18.2499 4.0053 18.2038C3.62697 18.0394 3.40658 17.6579 3.10938 17.3852C4.2099 17.1345 5.20848 16.5746 6.15394 15.9673C7.98169 14.7554 9.6235 13.2746 11.1361 11.6797C12.6638 10.0615 14.0701 8.30876 15.1958 6.37476C15.6918 5.48524 16.1448 4.55114 16.3429 3.54102Z" fill="#48FDBC"/>
<path d="M14.9969 16.8679C16.3333 17.7639 17.9254 18.1627 19.4888 18.4528C22.6507 18.9876 25.9093 18.954 29.0568 18.3314C30.39 18.0228 31.7655 17.6696 32.8901 16.8535C32.9508 17.2036 32.8869 17.584 32.6151 17.8342C31.9741 18.4568 31.1085 18.7662 30.2773 19.0467C28.7962 19.5127 27.2481 19.7053 25.7055 19.8276C23.9415 19.9307 22.1663 19.8891 20.4151 19.6406C19.5823 19.559 18.7686 19.3536 17.9582 19.1514C17.0159 18.8509 16.0216 18.5376 15.2878 17.8414C15.0057 17.5992 14.9665 17.2156 14.9969 16.8679Z" fill="white"/>
<path d="M13.4601 19.1555C13.6543 18.8094 13.9948 18.5449 14.3577 18.3954C14.9883 19.0948 15.8483 19.5216 16.7155 19.8509C18.5498 20.4991 20.492 20.7732 22.4279 20.8867C23.6579 20.9707 24.8928 20.9435 26.1213 20.8404C27.4768 20.7453 28.8244 20.5311 30.1376 20.1818C31.3557 19.8149 32.6593 19.3841 33.5169 18.3906C33.8965 18.5305 34.233 18.8158 34.44 19.1627C34.5887 19.4361 34.3649 19.719 34.1755 19.902C33.5337 20.4535 32.712 20.7157 31.9255 20.9874C30.1424 21.5158 28.2881 21.7803 26.4362 21.9074C24.7801 21.9985 23.12 21.9985 21.4631 21.9082C19.5921 21.7771 17.7178 21.511 15.9162 20.9707C15.1489 20.7013 14.3465 20.4415 13.7199 19.9036C13.5264 19.7206 13.301 19.4265 13.4601 19.1555Z" fill="white"/>
<path d="M13.4085 20.9805C14.7377 21.8685 16.3298 22.2161 17.8724 22.5374C18.9154 22.6901 19.9585 22.8715 21.0135 22.9235C22.3355 23.0274 23.6647 23.053 24.9915 23.0298C25.6261 22.9626 26.2679 23.0042 26.9017 22.9243C27.9799 22.8675 29.0461 22.6853 30.1124 22.5223C31.627 22.2089 33.1823 21.8469 34.4915 20.9845C34.4468 21.4864 34.6586 22.1074 34.2238 22.4903C33.5987 23.0602 32.7731 23.3255 31.9898 23.5997C29.4162 24.3773 26.7123 24.5939 24.0347 24.6123C23.7246 24.586 23.3945 24.8385 23.4209 25.1662C23.4193 26.3931 23.4161 27.6208 23.4225 28.8476C23.4137 29.1234 23.6727 29.376 23.9484 29.3616C25.5286 29.3624 27.1103 29.2832 28.6753 29.0586C30.1483 28.882 31.6134 28.5823 33.0065 28.0668C33.526 27.8653 34.0272 27.6216 34.4923 27.3138C34.4428 27.7974 34.6546 28.3921 34.2589 28.7749C33.8465 29.1985 33.2862 29.4231 32.7547 29.6557C30.7078 30.419 28.5202 30.7123 26.3534 30.873C25.1273 30.9073 23.9005 30.9881 22.6744 30.9089C21.1222 30.8874 19.5764 30.7179 18.049 30.4414C17.5647 30.3662 17.0891 30.2408 16.6176 30.1097C16.5296 30.0937 16.4425 30.0777 16.3546 30.0625C15.4906 29.7836 14.593 29.5182 13.8545 28.9699C13.6203 28.7877 13.3821 28.5327 13.4037 28.2138C13.4069 25.8032 13.3981 23.3919 13.4085 20.9805Z" fill="white"/>
<path d="M32.1595 24.9324C32.7193 24.7379 33.2739 24.5182 33.7697 24.207C33.7749 24.7631 33.7719 25.3199 33.7727 25.8767C33.7972 26.1449 33.5791 26.3585 33.3684 26.5147C32.7483 26.9432 31.9994 27.1677 31.2699 27.3881C29.0536 27.9722 26.7407 28.166 24.4433 28.207C24.4396 27.4571 24.4426 26.7072 24.4418 25.9573C24.6525 25.9566 24.8647 25.9566 25.0761 25.9484C25.9411 25.8979 26.8106 25.8849 27.6727 25.7867C29.1914 25.6236 30.71 25.3916 32.1595 24.9324Z" fill="#48FDBC"/>
<path d="M15.4663 0.0225375C16.0306 -0.0469986 16.65 0.0313294 17.0769 0.442152C17.7283 1.09595 18.3709 1.75934 19.0047 2.43072C19.4099 2.85913 19.4571 3.48735 19.4115 4.04604C19.1669 5.64777 18.3237 7.07446 17.4637 8.41962C15.9923 10.6256 14.2307 12.6278 12.3172 14.4597C11.0216 15.6809 9.64928 16.8287 8.16025 17.8094C7.41534 18.2969 6.63605 18.7373 5.81441 19.0834C5.22135 19.2992 4.61311 19.5334 3.9705 19.5078C3.47176 19.5342 2.9978 19.2848 2.65971 18.9324C2.14818 18.4048 1.64144 17.8725 1.12672 17.3482C0.912513 17.1276 0.677529 16.9038 0.587212 16.5993C0.332246 15.9175 0.500092 15.1798 0.679926 14.5028C0.985246 13.5645 1.43763 12.6813 1.94436 11.8373C3.22798 9.7448 4.80733 7.84655 6.51456 6.08736C8.29453 4.27863 10.2264 2.59537 12.4004 1.27339C13.3571 0.721895 14.3657 0.203971 15.4663 0.0225375ZM15.635 1.07997C15.3129 1.12153 14.9924 1.19186 14.6911 1.31655C13.1653 1.9136 11.8129 2.86872 10.5261 3.8678C8.67897 5.33845 6.99492 7.00812 5.46273 8.80247C4.05203 10.4849 2.72525 12.2777 1.86044 14.3086C1.69339 14.7682 1.52715 15.2374 1.48319 15.7281C1.45841 16.043 1.56471 16.4458 1.91239 16.5322C2.58058 16.6353 3.21919 16.3547 3.82344 16.1086C4.35495 15.8656 4.86648 15.5794 5.36522 15.2741C7.31303 14.0496 9.05543 12.5254 10.6731 10.8965C12.338 9.18292 13.8966 7.34781 15.149 5.30728C15.6326 4.49922 16.0794 3.66079 16.3719 2.76322C16.4846 2.31643 16.6333 1.83207 16.4686 1.37969C16.3375 1.05918 15.9283 1.03441 15.635 1.07997ZM17.5284 2.41394C17.3078 3.51852 16.8035 4.53999 16.2512 5.51269C14.998 7.62755 13.4322 9.54419 11.7314 11.3138C10.0473 13.0578 8.2194 14.6771 6.18447 16.0023C5.13183 16.6664 4.02006 17.2787 2.79478 17.5528C3.12568 17.851 3.37105 18.2682 3.79227 18.448C4.72421 18.4984 5.58182 18.0508 6.38908 17.6431C8.08192 16.7128 9.60213 15.5011 11.0352 14.2135C12.7105 12.6637 14.2794 10.9917 15.6518 9.16534C16.6524 7.81058 17.5956 6.38309 18.1719 4.79016C18.2909 4.4185 18.3821 4.03085 18.3813 3.63921C18.3932 3.07973 17.8402 2.79839 17.5284 2.41394Z" fill="black"/>
<path d="M26.6178 10.2598C26.6633 9.94973 27.0438 9.77469 27.3171 9.90897C29.1131 11.0088 30.272 13.0765 30.2616 15.1841C30.256 15.5574 29.7781 15.7948 29.4735 15.583C29.237 15.4599 29.2194 15.1729 29.2146 14.9379C29.1419 13.536 28.4825 12.1701 27.3955 11.2741C26.7009 12.493 25.4764 13.3426 24.1648 13.7846C23.4926 14.0308 22.7677 14.0755 22.058 14.0875C20.7887 14.1595 19.5419 14.6398 18.5732 15.4679C18.4037 15.6301 18.1448 15.7212 17.9258 15.6013C17.5909 15.4615 17.5445 14.9467 17.8211 14.7293C19.0543 13.6248 20.7056 13.0237 22.3577 13.0269C23.8267 13.0245 25.2582 12.3092 26.1886 11.1814C26.4076 10.9168 26.5698 10.6027 26.6178 10.2598Z" fill="black"/>
<path d="M19.4739 11.8149C20.9565 11.5927 22.4535 11.4304 23.9554 11.4464C24.2311 11.4432 24.4973 11.703 24.4757 11.9827C24.4869 12.2601 24.2295 12.5046 23.9562 12.499C21.9077 12.4974 19.8471 12.7068 17.8682 13.2503C17.0489 13.5189 16.2057 13.7978 15.5167 14.3341C15.2554 14.5428 14.9732 14.8233 15.0004 15.1862C15.0388 15.573 15.3705 15.824 15.6542 16.0454C16.2353 16.441 16.8963 16.6984 17.558 16.9214C19.8072 17.6119 22.1778 17.8006 24.5196 17.7654C26.5442 17.7206 28.5831 17.4864 30.5189 16.867C31.2686 16.5817 32.0591 16.2947 32.633 15.7097C32.8696 15.4779 33.0023 15.0926 32.8016 14.7961C32.4564 14.255 31.8433 13.9745 31.2862 13.7027C30.9889 13.5461 30.5941 13.5317 30.3807 13.2471C30.1673 12.9722 30.3391 12.5446 30.658 12.4439C30.9569 12.3855 31.2343 12.5518 31.5044 12.6525C32.3548 13.0138 33.2468 13.4701 33.7336 14.2926C34.0269 14.7761 33.9478 15.3628 33.9574 15.9015C33.9694 16.4066 33.9326 16.9142 33.9782 17.4177C34.7247 17.791 35.5159 18.4288 35.5407 19.3343C35.5447 22.322 35.5439 25.3089 35.5415 28.2957C35.5439 28.896 35.1707 29.4179 34.7143 29.7744C33.8143 30.4905 32.6945 30.8374 31.6067 31.1531C30.9473 31.2978 30.2935 31.4744 29.6238 31.5647C28.3529 31.7445 27.0773 31.9348 25.7905 31.9452C24.8042 32.0307 23.8115 31.9907 22.8228 31.9907C22.2393 31.9268 21.6503 31.9524 21.066 31.8972C19.6154 31.7709 18.1663 31.5911 16.7468 31.2634L16.6972 31.233C15.8212 31.0644 14.974 30.7567 14.1628 30.3898C13.5625 30.0757 12.9495 29.7056 12.5842 29.115C12.398 28.8216 12.3556 28.4668 12.3596 28.1271C12.3636 25.197 12.3564 22.2661 12.3628 19.3359C12.366 18.4064 13.2021 17.807 13.9286 17.3897C13.9558 16.5993 13.923 15.8064 13.943 15.0151C13.9909 14.2686 14.564 13.6947 15.1531 13.3015C16.4487 12.4615 17.9793 12.1146 19.4739 11.8149ZM14.9972 16.8694C14.9668 17.2171 15.006 17.6007 15.2881 17.8429C16.0219 18.5391 17.0161 18.8524 17.9585 19.1529C18.7689 19.3551 19.5826 19.5605 20.4154 19.6421C22.1666 19.8906 23.9418 19.9322 25.7058 19.8291C27.2483 19.7068 28.7965 19.5142 30.2776 19.0482C31.1088 18.7677 31.9744 18.4584 32.6154 17.8357C32.8872 17.5856 32.9511 17.2051 32.8904 16.855C31.7658 17.6711 30.3903 18.0244 29.0571 18.3329C25.9096 18.9555 22.651 18.9891 19.4891 18.4544C17.9257 18.1642 16.3336 17.7654 14.9972 16.8694ZM13.4626 19.1545C13.3036 19.4255 13.529 19.7196 13.7224 19.9026C14.349 20.4405 15.1515 20.7003 15.9188 20.9696C17.7203 21.51 19.5946 21.7761 21.4657 21.9072C23.1225 21.9975 24.7826 21.9975 26.4387 21.9064C28.2906 21.7793 30.1449 21.5147 31.928 20.9864C32.7145 20.7147 33.5362 20.4525 34.178 19.901C34.3674 19.718 34.5912 19.4351 34.4425 19.1617C34.2355 18.8148 33.899 18.5295 33.5194 18.3896C32.6618 19.3831 31.3582 19.8139 30.1401 20.1808C28.8269 20.53 27.4793 20.7443 26.1238 20.8394C24.8953 20.9425 23.6604 20.9696 22.4304 20.8857C20.4945 20.7722 18.5523 20.4981 16.718 19.8499C15.8508 19.5206 14.9908 19.0938 14.3602 18.3944C13.9973 18.5439 13.6568 18.8084 13.4626 19.1545ZM13.4083 20.9824C13.3979 23.3938 13.4067 25.8052 13.4035 28.2158C13.3819 28.5347 13.6201 28.7897 13.8543 28.9719C14.5928 29.5202 15.4903 29.7855 16.3544 30.0645C16.4423 30.0797 16.5294 30.0957 16.6173 30.1116C17.0889 30.2427 17.5644 30.3682 18.0488 30.4433C19.5762 30.7199 21.122 30.8893 22.6741 30.9109C23.9002 30.99 25.1271 30.9093 26.3532 30.8749C28.52 30.7143 30.7076 30.421 32.7545 29.6577C33.286 29.4251 33.8463 29.2005 34.2587 28.7769C34.6543 28.394 34.4425 27.7994 34.4921 27.3158C34.0269 27.6235 33.5258 27.8673 33.0063 28.0687C31.6131 28.5842 30.1481 28.884 28.675 29.0606C27.1101 29.2852 25.5283 29.3643 23.9482 29.3635C23.6724 29.3779 23.4135 29.1254 23.4223 28.8496C23.4159 27.6227 23.4191 26.3951 23.4207 25.1682C23.3943 24.8405 23.7244 24.5879 24.0345 24.6143C26.712 24.5959 29.416 24.3793 31.9896 23.6016C32.7729 23.3275 33.5985 23.0621 34.2235 22.4922C34.6583 22.1094 34.4465 21.4884 34.4913 20.9864C33.1821 21.8488 31.6267 22.2109 30.1121 22.5242C29.0459 22.6873 27.9797 22.8695 26.9015 22.9262C26.2676 23.0062 25.6258 22.9646 24.9912 23.0318C23.6644 23.0549 22.3353 23.0294 21.0133 22.9254C19.9582 22.8735 18.9152 22.6921 17.8722 22.5394C16.3296 22.2181 14.7374 21.8704 13.4083 20.9824ZM32.7625 24.4712C31.2063 25.0091 29.5758 25.2809 27.9453 25.4719C27.0198 25.587 26.0862 25.6022 25.1575 25.6613C24.9305 25.6709 24.7027 25.6709 24.4765 25.6717C24.4773 26.5501 24.4741 27.4285 24.4781 28.3069C26.9446 28.2589 29.4279 28.032 31.8074 27.3478C32.5906 27.0896 33.3947 26.8267 34.0605 26.3247C34.2867 26.1417 34.5209 25.8915 34.4945 25.5774C34.4937 24.9252 34.4969 24.273 34.4913 23.6216C33.959 23.9861 33.3635 24.2434 32.7625 24.4712Z" fill="black"/>
</svg>

<svg xmlns="http://www.w3.org/2000/svg" width="36" height="32" fill="none"><path fill="#fff" d="m33.271 14.368-2.34-1.504-1.65-.558-1.01-.895-1.182-.54-.665 1.01h-3.2270000000000003l-3.004.343-4.41 1.207-1.305.937-.197 2.413 6.083 2.069 9.336-1.158 3.571-1.896zM15.632 1.08c.293-.046.702-.02.833.3.165.452.016.937-.096 1.383-.293.898-.74 1.736-1.223 2.544-1.253 2.04-2.811 3.876-4.476 5.59-1.618 1.628-3.36 3.153-5.308 4.377a15 15 0 0 1-1.542.835c-.604.246-1.243.526-1.91.423-.348-.086-.455-.489-.43-.804.044-.49.21-.96.377-1.42.865-2.03 2.192-3.823 3.603-5.505 1.532-1.795 3.216-3.464 5.063-4.935 1.287-1 2.64-1.954 4.165-2.551.301-.125.622-.195.944-.237"/><path fill="#48FDBC" d="M16.343 3.541c.28.352.777.609.766 1.12 0 .359-.081.713-.188 1.053-.518 1.457-1.365 2.762-2.264 4.001-1.232 1.67-2.642 3.2-4.146 4.617-1.287 1.177-2.653 2.285-4.173 3.136-.725.373-1.496.782-2.333.736-.378-.165-.598-.546-.896-.819 1.1-.25 2.1-.81 3.045-1.418 1.828-1.212 3.47-2.692 4.982-4.287 1.528-1.618 2.934-3.371 4.06-5.305.496-.89.949-1.824 1.147-2.834"/><path fill="#fff" d="M14.997 16.868c1.336.896 2.928 1.295 4.492 1.585 3.162.535 6.42.501 9.568-.122 1.333-.308 2.709-.661 3.833-1.477.06.35-.003.73-.275.98-.64.623-1.507.932-2.338 1.213-1.48.466-3.029.658-4.571.78-1.764.104-3.54.062-5.29-.186-.834-.082-1.647-.287-2.458-.49-.942-.3-1.936-.613-2.67-1.31-.282-.242-.322-.625-.291-.973"/><path fill="#fff" d="M13.46 19.156c.194-.347.535-.611.898-.76.63.699 1.49 1.126 2.357 1.455 1.835.648 3.777.922 5.713 1.036 1.23.084 2.465.056 3.693-.047a21.5 21.5 0 0 0 4.017-.658c1.218-.367 2.521-.798 3.379-1.791.38.14.716.425.923.772.149.273-.075.556-.264.739-.642.551-1.464.814-2.25 1.085-1.784.529-3.638.793-5.49.92a46 46 0 0 1-4.973.001c-1.87-.13-3.745-.397-5.547-.937-.767-.27-1.57-.53-2.196-1.067-.194-.183-.419-.477-.26-.748"/><path fill="#fff" d="M13.409 20.98c1.329.889 2.92 1.236 4.463 1.557 1.043.153 2.087.335 3.142.387 1.322.103 2.65.129 3.977.106.635-.067 1.277-.026 1.91-.106 1.079-.056 2.145-.239 3.211-.402 1.515-.313 3.07-.675 4.38-1.537-.045.501.167 1.122-.268 1.505-.625.57-1.45.836-2.234 1.11-2.574.777-5.278.994-7.955 1.012-.31-.026-.64.227-.614.554-.002 1.227-.005 2.455.002 3.682a.52.52 0 0 0 .525.514c1.58 0 3.162-.079 4.727-.303 1.473-.177 2.938-.477 4.332-.992a7.8 7.8 0 0 0 1.485-.753c-.05.483.163 1.078-.233 1.46-.413.424-.973.65-1.504.882-2.047.763-4.235 1.056-6.402 1.217-1.226.034-2.453.115-3.679.036a28 28 0 0 1-4.625-.468c-.484-.075-.96-.2-1.431-.331l-.263-.047c-.864-.28-1.762-.545-2.5-1.093-.235-.182-.473-.437-.451-.756.003-2.41-.006-4.822.005-7.233"/><path fill="#48FDBC" d="M32.16 24.932c.56-.194 1.114-.414 1.61-.725.005.556.002 1.113.003 1.67.024.268-.194.482-.405.638-.62.428-1.369.653-2.098.873-2.216.584-4.53.778-6.827.819-.003-.75 0-1.5-.001-2.25.21 0 .423 0 .634-.009.865-.05 1.735-.063 2.597-.161 1.518-.163 3.037-.395 4.487-.855"/><path fill="#000" d="M15.466.023c.565-.07 1.184.008 1.61.42q.978.98 1.929 1.988c.405.428.452 1.056.407 1.615-.245 1.602-1.088 3.028-1.948 4.374-1.472 2.206-3.233 4.208-5.147 6.04-1.295 1.22-2.668 2.369-4.157 3.35-.745.487-1.524.927-2.346 1.273-.593.216-1.2.45-1.844.425-.498.026-.972-.223-1.31-.576-.512-.527-1.019-1.06-1.533-1.584-.214-.22-.45-.444-.54-.749-.255-.681-.087-1.42.093-2.096.305-.938.758-1.822 1.264-2.666 1.284-2.092 2.863-3.99 4.57-5.75 1.78-1.808 3.712-3.492 5.886-4.814.957-.551 1.966-1.069 3.066-1.25m.169 1.057a3.7 3.7 0 0 0-.944.237c-1.526.597-2.878 1.552-4.165 2.55C8.68 5.339 6.995 7.009 5.463 8.803c-1.411 1.683-2.738 3.476-3.603 5.507-.167.46-.333.928-.377 1.42-.025.314.082.717.43.803.668.103 1.306-.177 1.91-.423.532-.243 1.043-.53 1.542-.835 1.948-1.224 3.69-2.749 5.308-4.377 1.665-1.714 3.224-3.55 4.476-5.59.484-.808.93-1.646 1.223-2.544.113-.447.261-.93.097-1.383-.132-.32-.54-.346-.834-.3m1.893 1.334c-.22 1.105-.724 2.126-1.277 3.099-1.253 2.115-2.819 4.031-4.52 5.8-1.684 1.745-3.512 3.364-5.547 4.69-1.052.663-2.164 1.276-3.39 1.55.332.298.577.715.998.895.932.05 1.79-.397 2.597-.805 1.693-.93 3.213-2.142 4.646-3.43 1.675-1.55 3.244-3.221 4.617-5.048 1-1.354 1.944-2.782 2.52-4.375.119-.372.21-.76.21-1.15.011-.56-.542-.842-.854-1.226M26.618 10.26c.045-.31.426-.485.7-.351 1.795 1.1 2.954 3.167 2.944 5.275-.006.373-.484.61-.788.399-.237-.123-.255-.41-.26-.645-.072-1.402-.731-2.768-1.819-3.664-.694 1.219-1.919 2.069-3.23 2.51-.672.247-1.397.291-2.107.303a5.9 5.9 0 0 0-3.485 1.38c-.17.163-.428.254-.647.134-.335-.14-.381-.654-.105-.872 1.233-1.104 2.885-1.705 4.537-1.702 1.469-.002 2.9-.718 3.83-1.846.22-.264.382-.578.43-.921"/><path fill="#000" d="M19.474 11.815c1.482-.222 2.98-.385 4.481-.369.276-.003.542.257.52.537.012.277-.245.522-.519.516-2.048-.002-4.109.208-6.088.751-.82.269-1.662.548-2.351 1.084-.262.209-.544.49-.517.852.039.387.37.638.654.86.581.395 1.242.652 1.904.875 2.25.69 4.62.88 6.962.844 2.024-.044 4.063-.279 5.999-.898.75-.285 1.54-.572 2.114-1.157.237-.232.37-.617.169-.914-.346-.541-.959-.821-1.516-1.093-.297-.157-.692-.171-.905-.456-.214-.275-.042-.702.277-.803.299-.059.576.108.846.208.85.362 1.743.818 2.23 1.64.293.484.214 1.07.223 1.61.012.505-.024 1.012.021 1.516.747.373 1.538 1.01 1.563 1.916q.005 4.482 0 8.962c.003.6-.37 1.122-.827 1.478-.9.716-2.02 1.063-3.107 1.38-.66.144-1.313.32-1.983.41-1.271.18-2.547.37-3.833.381-.987.086-1.98.046-2.968.046-.584-.064-1.173-.039-1.757-.094-1.45-.126-2.9-.306-4.32-.634l-.049-.03c-.876-.169-1.723-.476-2.534-.843-.6-.314-1.213-.684-1.579-1.275-.186-.293-.228-.648-.224-.988.004-2.93-.004-5.86.003-8.791.003-.93.84-1.529 1.566-1.946.027-.79-.006-1.584.014-2.375.048-.746.621-1.32 1.21-1.713 1.296-.84 2.826-1.187 4.32-1.487m-4.477 5.054c-.03.348.009.732.291.974.734.696 1.728 1.01 2.67 1.31.81.202 1.625.408 2.457.49 1.752.248 3.527.29 5.29.186 1.543-.122 3.092-.315 4.573-.78.83-.281 1.696-.59 2.337-1.213.272-.25.336-.63.275-.981-1.124.816-2.5 1.17-3.833 1.478a26.6 26.6 0 0 1-9.568.121c-1.563-.29-3.155-.689-4.492-1.585m-1.534 2.285c-.16.271.066.566.26.749.626.538 1.428.797 2.196 1.067 1.801.54 3.676.806 5.547.937 1.656.09 3.317.09 4.973 0 1.852-.128 3.706-.392 5.489-.92.787-.272 1.608-.534 2.25-1.086.19-.183.413-.466.265-.74a1.84 1.84 0 0 0-.924-.771c-.857.993-2.16 1.424-3.379 1.79-1.313.35-2.66.564-4.016.66-1.229.102-2.464.13-3.694.046-1.936-.114-3.878-.388-5.712-1.036-.867-.33-1.727-.756-2.358-1.456-.363.15-.703.414-.897.76m-.055 1.828c-.01 2.412-.001 4.823-.005 7.234-.021.319.217.574.451.756.739.548 1.636.813 2.5 1.092l.263.048c.472.13.947.256 1.432.331 1.527.277 3.073.446 4.625.468 1.226.079 2.453-.002 3.68-.036 2.166-.16 4.354-.454 6.4-1.217.532-.233 1.092-.457 1.505-.881.395-.383.184-.978.233-1.461a7.8 7.8 0 0 1-1.486.753c-1.393.515-2.858.815-4.331.992-1.565.224-3.147.303-4.727.302a.52.52 0 0 1-.526-.513c-.006-1.227-.003-2.455-.001-3.682-.027-.328.303-.58.614-.554 2.677-.018 5.381-.235 7.955-1.012.783-.274 1.609-.54 2.234-1.11.434-.383.223-1.004.267-1.506-1.309.863-2.864 1.225-4.379 1.538-1.066.163-2.132.345-3.21.402-.634.08-1.276.039-1.91.106a42 42 0 0 1-3.979-.107c-1.055-.052-2.098-.233-3.14-.386-1.543-.32-3.136-.669-4.465-1.557m19.355 3.49c-1.557.537-3.187.809-4.818 1-.925.115-1.859.13-2.788.19-.227.009-.454.009-.68.01 0 .878-.003 1.756.001 2.635 2.467-.048 4.95-.275 7.33-.96.783-.257 1.587-.52 2.252-1.022.227-.183.46-.433.434-.748 0-.652.003-1.304-.003-1.955-.532.364-1.127.621-1.728.85"/></svg>
